X:1
T:Title
%%score ( 1 2 ) { 3 | 4 }
L:1/8
Q:1/4=83
M:6/8
K:Eb
V:1 treble nm="Grand Piano, Soprano"
V:2 treble 
V:3 treble nm="Choir Pad, The Heavenly Vision"
V:4 bass 
V:1
 [GB][GB][_G=A] [=GB] [Ge]2 | [GB][GB][_G=A] [=GB] [EG]2 | [EG][DB][DF] [EG][FA][GB] | %3
w: By~Charles~Hutchinson~Gabriel * * * *|||
 [FA] [EG]2- [EG]2- [EG]/ z/ | [GB][GB][_G=A] [=GB] [Ge]2 | [GB][Ac][A=B] [Ac][Ae][Ad] | %6
w: |||
 [_Gc][=GB][Ac] [GB][FA][EG] | [DF] E2- E3/2 z/ [Ge] | [Ge][Ad][FA] [FA][FA][FB] | %9
w: |||
 [Ad][Gc][EG] [EG]G_G | [EG] .[DB]2 FBc | [FA]EE EB[Ge] | [Ge][Ad][FA] [FA][FA][FB] | %13
w: ||||
 [Ad][Gc][EG] [EG]E-[E_G] | [EG][GB][Ac] [GB][FA][EG] | [DF] E2- E3- | E3 z3 |] %17
w: ||||
V:2
 x6 | x6 | x6 | x6 | x6 | x6 | x6 | x6 | x6 | z3 z E2 | z2 D- D/ z/ A2 | z G2- G2 z | x6 | %13
 z3 z .G2 | x6 | x6 | x6 |] %17
V:3
 EEE E B,2 | EEE E[K:bass] B,2 | B,B,B, B,B,B, | B, B,2- B,2- B,/ z/ | EEE E B,2 | EED ECC | %6
 EEE E[K:bass]B,B, | B, G,2- G,3/2 z/ B, | B,B,[K:treble]D D .D2 | z EB,[K:bass] B,B,=A, | %10
 B, B,2- B, D2 | B,B,B, B,EB, | B,B,[K:treble]D DDD | DE[K:bass]B, B,B,=A, | B,B,B, B,B,B, | %15
 A, G,2- G,3- | G,3 z3 |] %17
V:4
 E,E,E, E, E,2 | E,E,E, E, E,2 | E,B,,B,, B,,B,,B,, | B,, E,2- E,2- E,/ z/ | E,E,E, E, E,2 | %5
 E,A,A, A,A,,A,, | =A,,B,,B,, B,,B,,B,, | B,, E,2- E,3/2 z/ E, | E,F,B, B, .B,2 | z E,E, E, E,2 | %10
 E, B,,2- B,, B,,2 | B,,E,E, E,E,E, | E,F,B, B,B,B, | B,,E,E, E, E,2 | E,B,,B,, B,,B,,B,, | %15
 B,, E,2- E,3- | E,3 z3 |] %17

